Numix-Light/16/status/indicator-keyboard-Ar-5.svg

<?xml version="1.0" encoding="UTF-8" standalone="no"?>
<svg
   xmlns:dc="http://purl.org/dc/elements/1.1/"
   xmlns:cc="http://creativecommons.org/ns#"
   xmlns:rdf="http://www.w3.org/1999/02/22-rdf-syntax-ns#"
   xmlns:svg="http://www.w3.org/2000/svg"
   xmlns="http://www.w3.org/2000/svg"
   xmlns:sodipodi="http://sodipodi.sourceforge.net/DTD/sodipodi-0.dtd"
   xmlns:inkscape="http://www.inkscape.org/namespaces/inkscape"
   viewBox="0 0 16 16"
   id="svg2"
   version="1.1"
   inkscape:version="0.91 r13725"
   sodipodi:docname="indicator-keyboard-Ar-5.svg">
  <metadata
     id="metadata14">
    <rdf:RDF>
      <cc:Work
         rdf:about="">
        <dc:format>image/svg+xml</dc:format>
        <dc:type
           rdf:resource="http://purl.org/dc/dcmitype/StillImage" />
      </cc:Work>
    </rdf:RDF>
  </metadata>
  <defs
     id="defs12" />
  <sodipodi:namedview
     pagecolor="#ffffff"
     bordercolor="#666666"
     borderopacity="1"
     objecttolerance="10"
     gridtolerance="10"
     guidetolerance="10"
     inkscape:pageopacity="0"
     inkscape:pageshadow="2"
     inkscape:window-width="640"
     inkscape:window-height="480"
     id="namedview10"
     showgrid="false"
     inkscape:zoom="14.75"
     inkscape:cx="8"
     inkscape:cy="8"
     inkscape:window-x="65"
     inkscape:window-y="24"
     inkscape:window-maximized="0"
     inkscape:current-layer="svg2" />
  <path
     style="fill:#353535;fill-opacity:1"
     d="M 1.5996094 0 C 0.71320937 2.9605947e-16 0 0.71320937 0 1.5996094 L 0 14.400391 C 2.9605947e-16 15.286791 0.71320937 16 1.5996094 16 L 14.400391 16 C 15.286791 16 16 15.286791 16 14.400391 L 16 1.5996094 C 16 0.71320937 15.286791 0 14.400391 0 L 1.5996094 0 z M 4.5898438 4.859375 L 5.1308594 4.859375 C 5.3528594 5.321375 5.5617656 5.7821406 5.7597656 6.2441406 C 5.9577656 6.7061406 6.1574687 7.1893594 6.3554688 7.6933594 C 6.5594688 8.1913594 6.7665625 8.7231094 6.9765625 9.2871094 C 7.1865625 9.8451096 7.4141562 10.447703 7.6601562 11.095703 L 6.984375 11.095703 C 6.870375 10.789703 6.7621562 10.496844 6.6601562 10.214844 C 6.5581562 9.9328435 6.4592813 9.6567188 6.3632812 9.3867188 L 3.3300781 9.3867188 C 3.2280781 9.6567187 3.1273906 9.9328436 3.0253906 10.214844 C 2.9233906 10.496844 2.8169844 10.789703 2.7089844 11.095703 L 2.0703125 11.095703 C 2.3103125 10.447703 2.5360938 9.8451096 2.7460938 9.2871094 C 2.9560937 8.7231094 3.1594219 8.1913594 3.3574219 7.6933594 C 3.5614219 7.1893594 3.7629375 6.7061406 3.9609375 6.2441406 C 4.1589375 5.7821406 4.3678438 5.321375 4.5898438 4.859375 z M 4.8417969 5.5605469 C 4.6137969 6.0765469 4.3917813 6.6027187 4.1757812 7.1367188 C 3.9657813 7.6707187 3.7475312 8.2452813 3.5195312 8.8632812 L 6.1738281 8.8632812 C 5.9458281 8.2452813 5.7238125 7.6707187 5.5078125 7.1367188 C 5.2918125 6.6027188 5.0697969 6.0765469 4.8417969 5.5605469 z M 10.103516 6.3535156 C 10.295516 6.3535156 10.476531 6.3684375 10.644531 6.3984375 C 10.818531 6.4284375 10.937906 6.4582812 11.003906 6.4882812 L 10.886719 6.9921875 C 10.838719 6.9681875 10.739844 6.9439219 10.589844 6.9199219 C 10.445844 6.8899219 10.253672 6.875 10.013672 6.875 C 9.7616719 6.875 9.5583438 6.8936875 9.4023438 6.9296875 C 9.2523437 6.9656875 9.1534688 6.9955312 9.1054688 7.0195312 L 9.1054688 11.095703 L 8.5195312 11.095703 L 8.5195312 6.6582031 C 8.6695312 6.5922031 8.876625 6.5269375 9.140625 6.4609375 C 9.404625 6.3889375 9.7255156 6.3535156 10.103516 6.3535156 z M 11.962891 8.8417969 L 13.789062 8.8417969 L 13.789062 9.1757812 L 12.296875 9.1757812 C 12.293008 9.2498812 12.28713 9.3458906 12.279297 9.4628906 C 12.271497 9.5798906 12.263659 9.6994187 12.255859 9.8242188 C 12.248059 9.9451188 12.238262 10.062681 12.226562 10.175781 C 12.214862 10.288881 12.205066 10.379012 12.197266 10.445312 C 12.497566 10.453112 12.758162 10.490341 12.976562 10.556641 C 13.194962 10.622941 13.373272 10.711119 13.513672 10.824219 C 13.654072 10.937319 13.757919 11.074475 13.824219 11.234375 C 13.894419 11.394275 13.929688 11.572578 13.929688 11.767578 C 13.929688 11.939178 13.900297 12.097894 13.841797 12.246094 C 13.787197 12.394294 13.700984 12.523613 13.583984 12.632812 C 13.466984 12.742012 13.318072 12.828225 13.138672 12.890625 C 12.959272 12.953025 12.747653 12.984375 12.501953 12.984375 C 12.377153 12.984375 12.259591 12.974578 12.150391 12.955078 C 12.045091 12.939478 11.949081 12.919884 11.863281 12.896484 C 11.781381 12.873084 11.712797 12.849572 11.654297 12.826172 C 11.595797 12.802772 11.552691 12.783178 11.525391 12.767578 L 11.625 12.427734 C 11.6484 12.443334 11.687587 12.462928 11.742188 12.486328 C 11.800688 12.509728 11.865353 12.533241 11.939453 12.556641 C 12.017453 12.576141 12.103666 12.593775 12.197266 12.609375 C 12.294766 12.624975 12.396653 12.632812 12.501953 12.632812 C 12.696953 12.632812 12.859581 12.611259 12.988281 12.568359 C 13.120881 12.521559 13.224734 12.458859 13.302734 12.380859 C 13.380734 12.302859 13.435597 12.212728 13.466797 12.111328 C 13.501897 12.006028 13.519531 11.894337 13.519531 11.773438 C 13.519531 11.617438 13.494059 11.476362 13.443359 11.351562 C 13.392659 11.226762 13.302528 11.120956 13.173828 11.035156 C 13.045128 10.949356 12.872697 10.884697 12.654297 10.841797 C 12.435897 10.794997 12.159619 10.771484 11.824219 10.771484 C 11.847619 10.572584 11.865259 10.392316 11.880859 10.228516 C 11.896459 10.060816 11.910175 9.9001469 11.921875 9.7480469 C 11.933575 9.5920469 11.941412 9.4431281 11.945312 9.2988281 C 11.953113 9.1506281 11.958991 8.9977969 11.962891 8.8417969 z "
     id="path4" />
</svg>

<svg xmlns="http://www.w3.org/2000/svg" viewBox="0 0 16 16">
 <path d="m 1.6 0 c -0.886 0 -1.6 0.713 -1.6 1.6 l 0 12.801 c 0 0.886 0.713 1.6 1.6 1.6 l 12.801 0 c 0.886 0 1.6 -0.713 1.6 -1.6 l 0 -12.801 c 0 -0.886 -0.713 -1.6 -1.6 -1.6 l -12.801 0 z m 2.99 4.859 l 0.541 0 c 0.222 0.462 0.431 0.923 0.629 1.385 c 0.198 0.462 0.398 0.945 0.596 1.449 c 0.204 0.498 0.411 1.03 0.621 1.594 c 0.21 0.558 0.438 1.161 0.684 1.809 l -0.676 0 c -0.114 -0.306 -0.222 -0.599 -0.324 -0.881 c -0.102 -0.282 -0.201 -0.558 -0.297 -0.828 l -3.033 0 c -0.102 0.27 -0.203 0.546 -0.305 0.828 c -0.102 0.282 -0.208 0.575 -0.316 0.881 l -0.639 0 c 0.24 -0.648 0.466 -1.251 0.676 -1.809 c 0.21 -0.564 0.413 -1.096 0.611 -1.594 c 0.204 -0.504 0.406 -0.987 0.604 -1.449 c 0.198 -0.462 0.407 -0.923 0.629 -1.385 z m 0.252 0.701 c -0.228 0.516 -0.45 1.042 -0.666 1.576 c -0.21 0.534 -0.428 1.109 -0.656 1.727 l 2.654 0 c -0.228 -0.618 -0.45 -1.193 -0.666 -1.727 c -0.216 -0.534 -0.438 -1.06 -0.666 -1.576 z m 5.262 0.793 c 0.192 0 0.373 0.015 0.541 0.045 c 0.174 0.03 0.293 0.06 0.359 0.09 l -0.117 0.504 c -0.048 -0.024 -0.147 -0.048 -0.297 -0.072 c -0.144 -0.03 -0.336 -0.045 -0.576 -0.045 c -0.252 0 -0.455 0.019 -0.611 0.055 c -0.15 0.036 -0.249 0.066 -0.297 0.09 l 0 4.076 l -0.586 0 l 0 -4.437 c 0.15 -0.066 0.357 -0.131 0.621 -0.197 c 0.264 -0.072 0.585 -0.107 0.963 -0.107 z m 1.859 2.488 l 1.826 0 l 0 0.334 l -1.492 0 c -0.004 0.074 -0.01 0.17 -0.018 0.287 c -0.008 0.117 -0.016 0.237 -0.023 0.361 c -0.008 0.121 -0.018 0.238 -0.029 0.352 c -0.012 0.113 -0.021 0.203 -0.029 0.27 c 0.3 0.008 0.561 0.045 0.779 0.111 c 0.218 0.066 0.397 0.154 0.537 0.268 c 0.14 0.113 0.244 0.25 0.311 0.41 c 0.07 0.16 0.105 0.338 0.105 0.533 c 0 0.172 -0.029 0.33 -0.088 0.479 c -0.055 0.148 -0.141 0.278 -0.258 0.387 c -0.117 0.109 -0.266 0.195 -0.445 0.258 c -0.179 0.062 -0.391 0.094 -0.637 0.094 c -0.125 0 -0.242 -0.01 -0.352 -0.029 c -0.105 -0.016 -0.201 -0.035 -0.287 -0.059 c -0.082 -0.023 -0.15 -0.047 -0.209 -0.07 c -0.059 -0.023 -0.102 -0.043 -0.129 -0.059 l 0.1 -0.34 c 0.023 0.016 0.063 0.035 0.117 0.059 c 0.058 0.023 0.123 0.047 0.197 0.07 c 0.078 0.019 0.164 0.037 0.258 0.053 c 0.097 0.016 0.199 0.023 0.305 0.023 c 0.195 0 0.358 -0.022 0.486 -0.064 c 0.133 -0.047 0.236 -0.109 0.314 -0.188 c 0.078 -0.078 0.133 -0.168 0.164 -0.27 c 0.035 -0.105 0.053 -0.217 0.053 -0.338 c 0 -0.156 -0.025 -0.297 -0.076 -0.422 c -0.051 -0.125 -0.141 -0.231 -0.27 -0.316 c -0.129 -0.086 -0.301 -0.15 -0.52 -0.193 c -0.218 -0.047 -0.495 -0.07 -0.83 -0.07 c 0.023 -0.199 0.041 -0.379 0.057 -0.543 c 0.016 -0.168 0.029 -0.328 0.041 -0.48 c 0.012 -0.156 0.02 -0.305 0.023 -0.449 c 0.008 -0.148 0.014 -0.301 0.018 -0.457 z" style="fill:#353535;fill-opacity:1"/>
</svg>
